X:017
T:Breen's Hornpipe 
T:Sports at/of Listowel
B:CRE3.226 (CornphÃÂÃÂÃÂÃÂ­opa UÃÂÃÂÃÂÃÂ­ Bhraoin)
F:file ID: cre.3/017breen
R:hornpipe
L:1/8
Q:150
M:C
K:A
AF|E2EF A2FA|dddA BAFA|(3dcd de (3fga ec|dcBA FBAF|
(3.E.E.E EF A2FA|(3dcd dc dfaf|(3efe cA BAFE|A2 (3.A.A.A A2:|
(3efg|afec efea|afec efec|(3.d.d.d de (3fga ec|dcBA FBAF|
E3F A2FA|d2dc dfaf|(3efe cA BAFE|A2 (3.A.A.A A2:|

%%%

